Sources/FrostedUI/Resources/Icons.xcassets/dice32.imageset/dice-32.svg

<svg width="32" height="32" viewBox="0 0 32 32" fill="none" xmlns="http://www.w3.org/2000/svg" data-fui-icon="true">
  <path
    d="M5.39334 5.3934C6.09991 4.68684 7.0582 4.28996 8.05742 4.28993H23.9425C24.9417 4.28996 25.9 4.68684 26.6065 5.3934C27.3131 6.09996 27.71 7.05825 27.71 8.05748V23.9425C27.71 24.9417 27.3131 25.9 26.6065 26.6066C25.9 27.3132 24.9417 27.71 23.9425 27.7101H8.05742C7.0582 27.71 6.09991 27.3132 5.39334 26.6066C4.68678 25.9 4.28991 24.9417 4.28987 23.9425V8.05748C4.28991 7.05825 4.68678 6.09996 5.39334 5.3934ZM6.454 6.45406C6.02875 6.87932 5.78975 7.45608 5.78971 8.05748V23.9425C5.78975 24.5439 6.02875 25.1207 6.454 25.5459C6.87926 25.9712 7.45602 26.2102 8.05742 26.2102H23.9425C24.5439 26.2102 25.1206 25.9712 25.5459 25.5459C25.9711 25.1207 26.2101 24.5439 26.2102 23.9425V8.05748C26.2101 7.45608 25.9711 6.87932 25.5459 6.45406C25.1206 6.0288 24.5439 5.7898 23.9425 5.78976H8.05742C7.45602 5.7898 6.87926 6.0288 6.454 6.45406ZM19.7123 19.7123C20.3957 19.0289 21.5037 19.0289 22.1871 19.7123C22.8705 20.3957 22.8705 21.5038 22.1871 22.1872C21.5037 22.8706 20.3957 22.8706 19.7123 22.1872C19.0289 21.5038 19.0289 20.3957 19.7123 19.7123ZM9.81276 19.7123C10.4962 19.0289 11.6042 19.0289 12.2876 19.7123C12.971 20.3957 12.971 21.5038 12.2876 22.1872C11.6042 22.8706 10.4962 22.8705 9.81276 22.1872C9.12935 21.5038 9.12936 20.3957 9.81276 19.7123ZM14.7625 14.7626C15.4459 14.0792 16.554 14.0792 17.2374 14.7626C17.9208 15.446 17.9208 16.554 17.2374 17.2374C16.554 17.9208 15.4459 17.9208 14.7625 17.2374C14.0791 16.554 14.0791 15.446 14.7625 14.7626ZM19.7123 9.81282C20.3957 9.12941 21.5037 9.12941 22.1871 9.81282C22.8705 10.4962 22.8705 11.6043 22.1871 12.2877C21.5037 12.9711 20.3957 12.9711 19.7123 12.2877C19.0289 11.6043 19.0288 10.4962 19.7123 9.81282ZM9.81276 9.81282C10.4962 9.12943 11.6042 9.12942 12.2876 9.81282C12.971 10.4962 12.971 11.6043 12.2876 12.2877C11.6042 12.9711 10.4962 12.9711 9.81276 12.2877C9.12936 11.6043 9.12935 10.4962 9.81276 9.81282Z"
    fill="currentColor"
  />
</svg>

<svg xmlns="http://www.w3.org/2000/svg" width="32" height="32" fill="none" data-fui-icon="true" viewBox="0 0 32 32"><path fill="currentColor" d="M5.393 5.393A3.77 3.77 0 0 1 8.057 4.29h15.885a3.767 3.767 0 0 1 3.768 3.767v15.885a3.77 3.77 0 0 1-3.768 3.768H8.057a3.77 3.77 0 0 1-3.767-3.768V8.057c0-.999.397-1.957 1.103-2.664m1.061 1.061a2.27 2.27 0 0 0-.664 1.603v15.885a2.27 2.27 0 0 0 2.267 2.268h15.885a2.27 2.27 0 0 0 2.268-2.268V8.057a2.27 2.27 0 0 0-2.268-2.267H8.057c-.601 0-1.178.239-1.603.664m13.258 13.258a1.75 1.75 0 1 1 2.475 2.475 1.75 1.75 0 0 1-2.475-2.475m-9.9 0a1.75 1.75 0 1 1 2.476 2.475 1.75 1.75 0 0 1-2.475-2.475m4.95-4.95a1.75 1.75 0 1 1 2.475 2.476 1.75 1.75 0 0 1-2.474-2.475m4.95-4.95a1.75 1.75 0 1 1 2.475 2.476 1.75 1.75 0 0 1-2.475-2.475m-9.9 0a1.75 1.75 0 1 1 2.476 2.476 1.75 1.75 0 0 1-2.475-2.475"/></svg>
